X:1
T:Nun Nim Meinz Herz
T:Nun Nim Meinz Herz
T:Johann Anastasius Freylinghausen, 1713
T:Public Domain Courtesy of the Cyber Hymnal™
C:Johann Anastasius Freylinghausen, 1713
Z:Public Domain
Z:Courtesy of the Cyber Hymnal™
%%score ( 1 2 ) ( 3 4 )
L:1/8
Q:1/4=115
M:4/4
K:D
V:1 treble 
V:2 treble 
V:3 bass 
V:4 bass 
V:1
 [Fd]4 [EA]2 [CA]2 | [DF]6 [DA]2 | [DB]2 [Gc]2 [Fd]2 [Ee]2 | [Ec]4 z4 | [Ae]4 [EA]2 [EA]2 | %5
 [EB]6 [DB]2 | [Cc]2 [DB]2 [CA]2 [B,^G]2 | [CA]4 [Ec]4 | [Fd]4 [DA]4 | [DB]6 [DA]2 | %10
 [B,G]2 [DF]2 [CE]2 [B,D]2 | [CE]4 [EA]4 | [DF]2 [DA]2 [DB]2 [Ec]2 | d4 [DA]4 | %14
 z2 [DA]2 [DB]2 [CE]2 | [CE]2 [DF]2 z2 x4 | D8 |] %17
V:2
 x8 | x8 | x8 | x8 | x8 | x8 | x8 | x8 | x8 | x8 | x8 | x8 | x8 | (F3 E) x4 | x8 | x4 E4 C2 | D8 |] %17
V:3
 [D,A,]4 [C,A,]2 [A,,A,]2 | [D,A,]6 [D,F,]2 | G,2 [E,=G,]2 [F,A,]2 [^G,B,]2 | [A,C]4 z4 | %4
 [A,,C]4 [C,A,]2 [A,,C]2 | [^G,,B,]6 [B,,^G,]2 | [A,,A,]2 [D,F,]2 E,2 [E,,E,]2 | %7
 [A,,E,]4 [A,,A,]4 | [D,A,]4 [D,F,]4 | [G,,G,]6 [D,F,]2 | [E,G,]2 [D,A,]2 [A,,A,]2 [B,,F,]2 | %11
 [A,,A,]4 [C,A,]4 | [D,A,]2 [F,D]2 [G,B,]2 [E,G,]2 | [D,A,]4 [D,F,]4 | %14
 z2 [F,,A,]2 [G,,G,]2 [A,,E,]2 | [E,G,]2 [D,A,]2 [A,,A,]4 x2 | [D,F,]8 |] %17
V:4
 x8 | x8 | ^G,2 x6 | x8 | x8 | x8 | x4 E,2 x2 | x8 | x8 | x8 | x8 | x8 | x8 | x8 | x8 | x10 | x8 |] %17

